X: 24590
T: Lynch's
R: barndance
M: 4/4
K: Gmajor
|:dc|B2 B2 BABd|c2 cB c2 e2|dgfe dcBA|GFGA BGDG|
B2 BA BABd|c2 cB c3 e|dgfe dcBA|1 G2 g2 g2:|2 G2 g2 g2 dg||
|:b2 b2 b2 ag|fefg a2 b2|c'2 c'2 c'efa|gfga bgdg|
b2 b2 b2 ag|fefg a2 b2|c'2 c'2 c'efa|1 g2 gf g2 dg:|2 g2 gf g2||

